flaticon/household/television-3.svg

<svg xmlns="http://www.w3.org/2000/svg" width="32" height="32" viewBox="0 0 24 24">
    <path d="M 24 15.199219 L 24 13.199219 L 14.328125 13.199219 C 14.371094 13.074219 14.398438 12.941406 14.398438 12.800781 C 14.398438 12.136719 13.863281 11.601562 13.199219 11.601562 L 12.398438 11.601562 L 12.398438 10.800781 L 21.601562 10.800781 L 21.601562 0 L 2.398438 0 L 2.398438 10.800781 L 11.601562 10.800781 L 11.601562 11.601562 L 10.800781 11.601562 C 10.136719 11.601562 9.601562 12.136719 9.601562 12.800781 C 9.601562 12.941406 9.628906 13.074219 9.671875 13.199219 L 0 13.199219 L 0 15.199219 L 0.800781 15.199219 L 0.800781 20.800781 L 0 20.800781 L 0 22.800781 L 0.800781 22.800781 L 0.800781 23.601562 C 0.800781 23.820312 0.980469 24 1.199219 24 L 2.398438 24 C 2.535156 24 2.660156 23.933594 2.734375 23.820312 L 3.414062 22.800781 L 20.585938 22.800781 L 21.265625 23.820312 C 21.339844 23.933594 21.464844 24 21.601562 24 L 22.800781 24 C 23.019531 24 23.199219 23.820312 23.199219 23.601562 L 23.199219 22.800781 L 24 22.800781 L 24 20.800781 L 23.199219 20.800781 L 23.199219 15.199219 Z M 3.199219 2 L 20.800781 2 L 20.800781 8.800781 L 3.199219 8.800781 Z M 20.800781 0.800781 L 20.800781 1.199219 L 3.199219 1.199219 L 3.199219 0.800781 Z M 3.199219 9.601562 L 20.800781 9.601562 L 20.800781 10 L 3.199219 10 Z M 10.398438 12.800781 C 10.398438 12.578125 10.578125 12.398438 10.800781 12.398438 L 13.199219 12.398438 C 13.421875 12.398438 13.601562 12.578125 13.601562 12.800781 C 13.601562 13.019531 13.421875 13.199219 13.199219 13.199219 L 10.800781 13.199219 C 10.578125 13.199219 10.398438 13.019531 10.398438 12.800781 Z M 0.800781 14 L 23.199219 14 L 23.199219 14.398438 L 0.800781 14.398438 Z M 9.199219 20.800781 L 9.199219 18.398438 L 9.601562 18.398438 L 9.601562 20.800781 Z M 3.199219 18.398438 L 3.601562 18.398438 L 3.601562 20.800781 L 3.199219 20.800781 Z M 4.398438 18.398438 L 4.800781 18.398438 L 4.800781 20.800781 L 4.398438 20.800781 Z M 5.601562 18.398438 L 6 18.398438 L 6 20.800781 L 5.601562 20.800781 Z M 6.800781 18.398438 L 7.199219 18.398438 L 7.199219 20.800781 L 6.800781 20.800781 Z M 8 18.398438 L 8.398438 18.398438 L 8.398438 20.800781 L 8 20.800781 Z M 9.601562 15.199219 L 9.601562 17.601562 L 1.601562 17.601562 L 1.601562 15.199219 Z M 1.601562 18.398438 L 2.398438 18.398438 L 2.398438 20.800781 L 1.601562 20.800781 Z M 2.1875 23.199219 L 1.601562 23.199219 L 1.601562 22.800781 L 2.453125 22.800781 Z M 22.398438 23.199219 L 21.8125 23.199219 L 21.546875 22.800781 L 22.398438 22.800781 Z M 23.199219 22 L 0.800781 22 L 0.800781 21.601562 L 23.199219 21.601562 Z M 22.398438 20.800781 L 10.398438 20.800781 L 10.398438 15.199219 L 22.398438 15.199219 Z M 22.398438 20.800781"/>
    <path d="M 12 18.800781 C 12.222656 18.800781 12.398438 18.621094 12.398438 18.398438 L 12.398438 17.601562 C 12.398438 17.378906 12.222656 17.199219 12 17.199219 C 11.777344 17.199219 11.601562 17.378906 11.601562 17.601562 L 11.601562 18.398438 C 11.601562 18.621094 11.777344 18.800781 12 18.800781 Z M 12 18.800781"/>
</svg>

<svg xmlns="http://www.w3.org/2000/svg" width="32" height="32" viewBox="0 0 24 24">
    <path d="M24 15.2v-2h-9.672a1.197 1.197 0 0 0-1.129-1.598h-.8V10.8h9.203V0H2.398v10.8h9.204v.802H10.8a1.197 1.197 0 0 0-1.13 1.597H0v2h.8v5.602H0v2h.8v.8a.4.4 0 0 0 .4.399h1.198a.398.398 0 0 0 .336-.18l.68-1.02h17.172l.68 1.02c.074.114.199.18.336.18H22.8a.4.4 0 0 0 .398-.398V22.8H24v-2h-.8v-5.602zM3.2 2h17.6v6.8H3.2zM20.8.8v.4H3.2V.8zM3.2 9.603h17.6V10H3.2zm7.198 3.199c0-.223.18-.403.403-.403h2.398a.401.401 0 0 1 0 .8l-2.398.001a.401.401 0 0 1-.403-.398zM.801 14h22.398v.398H.801zm8.398 6.8v-2.402h.403v2.403zm-6-2.402h.403v2.403h-.403zm1.2 0H4.8v2.403h-.403zm1.203 0H6v2.403h-.398zm1.199 0h.398v2.403h-.398zm1.199 0h.398v2.403H8zM9.602 15.2v2.403h-8v-2.403zm-8 3.2h.796V20.8h-.796zm.585 4.8h-.585v-.398h.851zm20.211 0h-.585l-.266-.398h.851zM23.2 22H.801v-.398h22.398zm-.8-1.2h-12v-5.6h12zm0 0"/>
    <path d="M12 18.8c.223 0 .398-.179.398-.402v-.796a.398.398 0 1 0-.796 0v.796c0 .223.175.403.398.403zm0 0"/>
</svg>
